X:20
T:GB/7d/20 Saturday Night
%%VWML:GB-7d-20-0
F:http://www.vwml.org/record/GB/7d/20
T:Bucknell Morris Tunes 4 of 8
C:Transcribed by Simon Furey and Lewis Jones
L:1/8
M:6/8
I:linebreak $
K:G
BAG Gdd | dAA A3 | BAG EEE | AGF G3 :| ADD D3 | AAB c3 | BAG Bcd |$ DGF G3 | ADD D3 | [M:9/8] AAB c2 B c3 |[M:6/8] B2 A G3 | B2 c d3 | (2:3:2DG F3 |[M:3/8] G3 |]

